X:0616
T:What a Beau my Granny was.
M:C|
L:1/8
Q:1/2=104
I: :: :|
N:Last note printed D2
Z:Jack Campin * www.campin.me.uk * 2009
K:D
g|fdec dBAG|FAdf eE2g|fdec dBAG|FdEc d2D:|
G|FADF GBEG|FAdf eE2G|FAdf gedc|dBAG FDD:|
<end>
<start>
